X: 2
T: Al Tira
M: 2/4
L: 1/8
C: E. Harussi and M. Zeira
O: Israel
S: Handwritten MS of unknown origin
Z: 2005 John Chambers <jc:trillian.mit.edu>
K: Am
[|"Am"A2 "(G)"GG | "Am"AA "(G)"GG | "Am"Ac "G"BA/G/ | "Am"A3 z \
| "Am"A2 "(G)"GG | "Am"AA "(G)"GG | "Am"Ac "G"BA/G/ | "Am"A3 z |]
[| "C"ce- ee | "G7"df- ff |  "C"ec    ce | "G7"dG- GG \
|  "C"ce- ee | "G7"df- ff |  "C"ec "G"dB | "Am"A2  A2 |]
[|"Am"za- aa | "G7"g2 f2 |     dg- gf |  "C"e2 e2 \
| "Am"za- aa | "G7"g2 f2 |     de- ed | "Am"c2 c2 |]
[| "C"cd ec | "G7"de/f/ ed |  "C"c2 "G"  d2 | "Am"e4 \
|  "C"cd ec | "G7"de/f/ ed | "Am"c2 "Gm"_B2 | "Am"A3 z |]
%%sep 2 1 500
